X:1
T:G Major      Abraham Wood, 1793
T:Nahum Tate and Nicholas Brady, 1798 (Psalm 129)                      86. 86. (C. M.)
T:Still River
T:Transcribed from The Columbian Harmony, 1793.
%%score [ 1 2 3 4 ]
L:1/8
Q:1/4=150
M:4/4
K:G
V:1 treble nm="Tr." snm="Tr."
V:2 treble nm="C." snm="C."
V:3 treble-8 nm="T." snm="T."
V:4 bass nm="B." snm="B."
V:1
"^3. Like corn  up – on our house's tops, Un–time–ly let them fade.                                                                                                Which too much heat, and want of""^2. They oft have plowed my patient back With furrows deep and long,                                                                                          But   our just God has broke  their""^1. From  my youth up, may Israel say, They oft have me assailed,                                                                                                   Re – duced me oft to  hea  –  vy" G4 | %1
 B2 B2 A2 A2 | G4 G4 | G6 A2 | B2 B2 B2 c2 | d8 |: z8 | z8 | z8 | z8 | z4 G4 | d2 d2 d2 c2 | %12
 B4 B4 | %13
"^1. straits,      But     ne–ver.  ne – ver,  ne–ver,  ne–ver   quite  pre – vailed.   Re –  duced  me   oft   to         heavy straits, But ne–ver quite prevailed.""^2. chains,       And rescued, rescued.  rescued, rescued  us      from  wrong.   But     our    just God has broke their chains, And rescued us from wrong.""^3. root,          Has  blasted,  blasted,  blasted,  blasted  in       the    blade.   Which  too  much  heat,    and    want  of root, Has blas–ted  in  the blade." c6 cB | %14
 A2 F2 D2 G2 | B2 B2 B2 G2 | A4 A4 | A6 A2 | B>c d2 d2 d2 | G2 G2 G2 A2 | B2 G2 G2 F2 | G8 :| %22
V:2
"^1. From  my youth up, may Israel say, They oft have me assailed,                                                   Re –duced me oft to   hea  –  vy          straits,     But never,  never""^2. They oft have plowed my patient back With furrows deep and long,                                          But our just God  has  broke  their       chains,  And rescued, rescued""^3. Like corn  up – on our house's tops, Un–time–ly let them fade.                                                Which too much heat, and want of        root,    Has blasted, blasted" D4 | %1
 G2 G2 F2 FE | D4 D4 | D6 D2 | D2 D2 G2 E2 | F8 |: z8 | z8 | z4 D4 | G2 G2 G2 F2 | E4 E4 | F6 A2 | %12
 G2 G2 D2 D2 | %13
"^1. quite    pre   –     vailed,           But   ne–ver.  ne– ver,  quite  pre – vailed.   Re  –  duced  me   oft   to         heavy straits, But ne–ver quite prevailed.""^2.  us        from        wrong.          And  rescued, rescued.  us     from  wrong.   But     our    just God has broke their chains, And rescued us from wrong.""^3.  in        the           blade.           Has  blasted,  blasted,  in       the    blade.   Which  too much heat, and want  of     root,   Has blas–ted  in  the blade." E4 E4 | %14
 D6 D2 | D2 D2 D2 G2 | E4 E4 | F6 F2 | G2 G2 G2 F2 | E2 E2 E2 E2 | D2 E2 D2 D2 | D8 :| %22
V:3
"^1. From  my youth up, may Israel say, They oft have me assailed,                           Re  – duced me oft to hea – vy        straits,       But    never,  never  quite  pre  –""^2. They oft have plowed my patient back With furrows deep and long,                  But   our just God has broke their   chains,       And rescued, rescued  us   from""^3. Like corn  up – on our house's tops, Un–time–ly let them fade.                       Which too much heat, and want  of    root,         Has blasted, blasted   in   the" G4 | %1
 d2 d2 d2 dc | B4 B4 | B6 A2 | G2 G2 G2 G2 | A8 |: z8 | z4 B4 | d2 d2 d2 c2 | B4 B4 | c6 cB | %11
 A2 A2 F2 F2 | G4 B4 | %13
"^1. –vailed,     But    ne–ver.  ne – ver,  ne–ver,  ne–ver   quite  pre – vailed.   Re –  duced  me   oft   to         heavy straits, But ne–ver quite prevailed.""^2. wrong.       And   rescued, rescued.  rescued, rescued  us   from  wrong.   But     our    just God has broke   their chains, And rescued us from wrong.""^3. blade.        Has   blasted,  blasted,  blasted,  blasted  in       the    blade.   Which  too much heat, and want  of     root,   Has blas–ted  in  the blade." A6 A2 | %14
 A2 A2 B2 B2 | G2 G2 d2 d2 | e4 ^c4 | d6 dc | B2 B2 B2 AB | c2 c2 c2 e2 | d2 c2 B2 A2 | G8 :| %22
V:4
 G,,4 | G,,2 G,,2 D,2 D,2 | G,4 G,4 | G,6 F,2 | G,2 G,F, E,2 E,2 | D,8 |: %6
 z4"^1. Re–duced me oft to  hea–vy       straits,     But      never,  never   quite   pre –  vailed.      But""^2. But our just God has broke their chains,     And rescued, rescued   us      from   wrong.    And""^3. Which too much heat, and want of root,     Has  blasted, blasted    in      the      blade.     Has" D,4 | %7
 G,2 G,2 G,2 E,2 | D,4 D,4 | E,6 E,D, | C,2 C,2 E,2 E,2 | D,4 D,4 | G,6 G,2 | %13
"^1. ne–ver. ne–ver,    ne–ver.  ne – ver,  ne–ver,  ne–ver   quite  pre – vailed.   Re –  duced  me   oft   to         heavy straits, But ne–ver quite prevailed.""^2. rescued, rescued, rescued, rescued.  rescued, rescued  us      from  wrong.   But     our    just God has broke their chains, And rescued us from wrong.""^3. blasted, blasted, blasted,  blasted,  blasted,  blasted  in       the    blade.   Which  too much heat, and want  of     root,   Has blas–ted  in  the blade." C,2 C,2 A,,2 A,,2 | %14
 D,2 D,C, B,,2 G,,2 | G,2 G,2 B,2 B,2 | A,4 A,,4 | D,6 D,2 | G,2 G,2 G,2 D,2 | C,2 C,2 C,2 A,,2 | %20
 B,,2 C,2 D,2 D,2 | G,,8 :| %22

